X: 15082
T: Gesto, The
R: reel
M: 4/4
K: Gmajor
BA|:GEDE ~G2 Ge|dGBG AGEG|GEDE G2 Ge|1 dGBG ~A2BA:|2 dGBG ~A3f||
gede g2 gb|agab ageg|gede g2 gb|agab ~g3a|
gede g2 gb|~a3b ageg|gede gaba|gegB ~A2||

